!!! OTL: Berkowitz617
!!! Chapter: 1
!!! Section: V
!!! Page: 157
!!! Mode: 
!!! Encoder: AR
**kern
*staff1
=1-
!!pagebreak:original
*clefF4
*k[]
*C:
*M4/4
4D-\
4c\
4c\
4A\
=2
4B\
4B-\
2Dn\
=3
4D-\
4c\
4c\
4A\
=4
2G\
2B\
=5
!!linebreak:original
4A#\
4BB/
4BB/
4A#\
=6
4E\
4F#\
2c#\
=7
4cn\
4G\
4D\
4F#\
=8
2C#/
2C#/
==
*-
